X: 28
T:Trip to London. BF11.28
M:6/8
L:1/8
Q:120
C:Browne A hand
S:MS11,c1800.,Browne Coll.,Lakes
R:Jig
O:England
A:Lakes
Z:vmp.Cherri Graebe.
K:Bb major
DFB dcB|ABc GFE|DFB dcB|FBA B3:|!
|:Bdf Bdf|bag fed|Bdf Bdf|gec cAF|!
Bdf fga|bag fed|cde dcB|FBA B3:|]
